; G-code-like output for Mitsubishi pattern: 05PF.100
; Generated by Mitsubishi Pattern Parser
; Total commands: 138

G90 ; Absolute positioning
G21 ; Units in millimeters

G0 X384.00 Y7.86 ; Move to position
G0 X386.56 Y7.86 ; Move to position
G0 X386.56 Y7.86 ; Move to position
G0 X386.56 Y7.86 ; Move to position
G0 X386.56 Y7.86 ; Move to position
G0 X386.56 Y2.75 ; Move to position
G1 X0.00 Y0.38 ; Stitch point
G1 X0.00 Y0.38 ; Stitch point
G1 X0.00 Y0.39 ; Stitch point
G1 X0.00 Y0.38 ; Stitch point
G1 X0.00 Y0.39 ; Stitch point
G1 X0.00 Y0.38 ; Stitch point
G1 X0.00 Y0.39 ; Stitch point
G1 X0.00 Y0.38 ; Stitch point
G1 X0.00 Y0.39 ; Stitch point
G1 X0.00 Y0.38 ; Stitch point
G1 X0.00 Y0.39 ; Stitch point
G1 X0.00 Y0.38 ; Stitch point
G1 X0.00 Y0.39 ; Stitch point
G1 X0.00 Y430.08 ; Stitch point
G1 X0.00 Y430.08 ; Stitch point
G1 X0.00 Y430.08 ; Stitch point
G1 X0.00 Y430.08 ; Stitch point
G1 X0.00 Y430.08 ; Stitch point
G1 X0.00 Y430.08 ; Stitch point
G1 X0.00 Y430.08 ; Stitch point
G1 X0.00 Y430.08 ; Stitch point
G1 X0.00 Y430.08 ; Stitch point
G1 X0.00 Y430.08 ; Stitch point
G1 X0.00 Y1.66 ; Stitch point
G1 X0.00 Y1.66 ; Stitch point
G1 X0.00 Y1.67 ; Stitch point
G1 X0.00 Y1.66 ; Stitch point
G1 X0.00 Y1.67 ; Stitch point
G1 X0.00 Y1.66 ; Stitch point
G1 X0.00 Y1.67 ; Stitch point
G1 X0.00 Y1.66 ; Stitch point
G1 X0.00 Y1.67 ; Stitch point
G1 X0.00 Y1.66 ; Stitch point
G1 X0.00 Y1.67 ; Stitch point
G1 X0.00 Y1.66 ; Stitch point
G1 X0.00 Y1.67 ; Stitch point
G2 X0.00 Y102.40 ; Circular motion
G2 X0.00 Y102.40 ; Circular motion
G2 X0.00 Y102.40 ; Circular motion
G2 X0.00 Y102.40 ; Circular motion
G2 X0.00 Y102.40 ; Circular motion
G2 X0.00 Y102.40 ; Circular motion
G2 X0.00 Y102.40 ; Circular motion
G2 X0.00 Y102.40 ; Circular motion
G2 X0.00 Y102.40 ; Circular motion
G1 X0.00 Y102.40 ; Stitch point
G2 X0.00 Y391.99 ; Circular motion
G2 X0.00 Y391.99 ; Circular motion
G2 X0.00 Y391.99 ; Circular motion
G2 X0.00 Y392.00 ; Circular motion
G2 X0.00 Y391.99 ; Circular motion
G2 X0.00 Y391.99 ; Circular motion
G2 X0.00 Y391.99 ; Circular motion
G2 X0.00 Y392.00 ; Circular motion
G2 X0.00 Y391.99 ; Circular motion
G2 X0.00 Y391.99 ; Circular motion
G2 X0.00 Y391.99 ; Circular motion
G2 X0.00 Y392.00 ; Circular motion
G2 X0.00 Y391.99 ; Circular motion
G2 X0.00 Y391.99 ; Circular motion
G2 X0.00 Y391.99 ; Circular motion
G1 X0.00 Y392.00 ; Stitch point
G0 X404.48 Y330.24 ; Move to position
G2 X0.00 Y64.31 ; Circular motion
G2 X0.00 Y64.31 ; Circular motion
G2 X0.00 Y64.31 ; Circular motion
G2 X0.00 Y64.32 ; Circular motion
G2 X0.00 Y64.31 ; Circular motion
G2 X0.00 Y64.31 ; Circular motion
G2 X0.00 Y64.31 ; Circular motion
G2 X0.00 Y64.32 ; Circular motion
G2 X0.00 Y64.31 ; Circular motion
G2 X0.00 Y64.31 ; Circular motion
G2 X0.00 Y64.31 ; Circular motion
G2 X0.00 Y64.32 ; Circular motion
G2 X0.00 Y64.31 ; Circular motion
G2 X0.00 Y64.31 ; Circular motion
G2 X0.00 Y64.31 ; Circular motion
G1 X0.00 Y64.32 ; Stitch point
G0 X386.56 Y80.83 ; Move to position

M30 ; End of program
