; G-code-like output for Mitsubishi pattern: NEW.109
; Generated by Mitsubishi Pattern Parser
; Total commands: 69

G90 ; Absolute positioning
G21 ; Units in millimeters

G0 X0.00 Y2.77 ; Move to position
G1 X0.00 Y1.56 ; Stitch point
G1 X0.00 Y1.57 ; Stitch point
G1 X0.00 Y1.56 ; Stitch point
G1 X0.00 Y1.57 ; Stitch point
G1 X0.00 Y1.56 ; Stitch point
G1 X0.00 Y1.57 ; Stitch point
G1 X0.00 Y1.56 ; Stitch point
G1 X0.00 Y1.57 ; Stitch point
G1 X0.00 Y1.56 ; Stitch point
G1 X0.00 Y1.57 ; Stitch point
G1 X0.00 Y1.56 ; Stitch point
G1 X0.00 Y1.57 ; Stitch point
G1 X0.00 Y1.57 ; Stitch point
G1 X0.00 Y0.29 ; Stitch point
G1 X0.00 Y0.30 ; Stitch point
G1 X0.00 Y0.30 ; Stitch point
G1 X0.00 Y0.30 ; Stitch point
G1 X0.00 Y0.30 ; Stitch point
G1 X0.00 Y0.30 ; Stitch point
G1 X0.00 Y0.30 ; Stitch point
G1 X0.00 Y0.30 ; Stitch point
G1 X0.00 Y0.29 ; Stitch point
G1 X0.00 Y0.30 ; Stitch point
G1 X0.00 Y0.30 ; Stitch point
G1 X0.00 Y0.30 ; Stitch point
G1 X0.00 Y0.30 ; Stitch point
G1 X0.00 Y0.30 ; Stitch point
G1 X0.00 Y0.30 ; Stitch point
G1 X0.00 Y0.30 ; Stitch point
G1 X0.00 Y0.30 ; Stitch point
G1 X0.00 Y0.29 ; Stitch point
G1 X0.00 Y0.30 ; Stitch point
G1 X0.00 Y0.30 ; Stitch point
G1 X0.00 Y0.30 ; Stitch point
G1 X0.00 Y0.30 ; Stitch point
G1 X0.00 Y0.30 ; Stitch point
G1 X0.00 Y0.30 ; Stitch point
G1 X0.00 Y0.30 ; Stitch point
G1 X0.00 Y0.30 ; Stitch point
G1 X0.00 Y1.56 ; Stitch point
G1 X0.00 Y1.57 ; Stitch point
G1 X0.00 Y1.57 ; Stitch point
G1 X0.00 Y1.57 ; Stitch point
G1 X0.00 Y1.56 ; Stitch point
G1 X0.00 Y1.57 ; Stitch point
G1 X0.00 Y1.57 ; Stitch point
G1 X0.00 Y1.57 ; Stitch point
G1 X0.00 Y1.56 ; Stitch point
G1 X0.00 Y1.57 ; Stitch point
G1 X0.00 Y1.57 ; Stitch point
G1 X0.00 Y1.57 ; Stitch point
G1 X0.00 Y1.56 ; Stitch point
G1 X0.00 Y1.57 ; Stitch point
G1 X0.00 Y1.57 ; Stitch point
G1 X0.00 Y1.57 ; Stitch point
G1 X0.00 Y1.57 ; Stitch point
F0 ; Speed change
G0 X69.12 Y9.03 ; Move to position
G0 X71.68 Y80.71 ; Move to position

M30 ; End of program
