; G-code-like output for Mitsubishi pattern: NEW.102
; Generated by Mitsubishi Pattern Parser
; Total commands: 195

G90 ; Absolute positioning
G21 ; Units in millimeters

G0 X66.56 Y7.79 ; Move to position
G0 X66.56 Y7.79 ; Move to position
G0 X66.56 Y7.79 ; Move to position
G0 X66.56 Y7.79 ; Move to position
G0 X66.56 Y7.79 ; Move to position
; --- Pattern section separator ---
G1 X0.00 Y1.57 ; Stitch point
G1 X0.00 Y1.57 ; Stitch point
G1 X0.00 Y1.57 ; Stitch point
G1 X0.00 Y1.57 ; Stitch point
G1 X0.00 Y1.57 ; Stitch point
G1 X0.00 Y1.57 ; Stitch point
G1 X0.00 Y1.57 ; Stitch point
G1 X0.00 Y1.58 ; Stitch point
G1 X0.00 Y1.57 ; Stitch point
G1 X0.00 Y1.57 ; Stitch point
G1 X0.00 Y1.57 ; Stitch point
G1 X0.00 Y1.57 ; Stitch point
G1 X0.00 Y1.57 ; Stitch point
G1 X0.00 Y1.57 ; Stitch point
G1 X0.00 Y1.57 ; Stitch point
G1 X0.00 Y1.58 ; Stitch point
G1 X0.00 Y1.57 ; Stitch point
G1 X0.00 Y1.57 ; Stitch point
G1 X0.00 Y1.57 ; Stitch point
G1 X0.00 Y1.57 ; Stitch point
G1 X0.00 Y1.57 ; Stitch point
G1 X0.00 Y1.57 ; Stitch point
G1 X0.00 Y1.58 ; Stitch point
G1 X0.00 Y330.53 ; Stitch point
G1 X0.00 Y333.09 ; Stitch point
G1 X0.00 Y333.09 ; Stitch point
G1 X0.00 Y333.09 ; Stitch point
G1 X0.00 Y333.09 ; Stitch point
G1 X0.00 Y333.09 ; Stitch point
G1 X0.00 Y333.09 ; Stitch point
G1 X0.00 Y330.54 ; Stitch point
G1 X0.00 Y333.09 ; Stitch point
G1 X0.00 Y333.09 ; Stitch point
G1 X0.00 Y333.09 ; Stitch point
G1 X0.00 Y333.09 ; Stitch point
G1 X0.00 Y333.09 ; Stitch point
G1 X0.00 Y333.09 ; Stitch point
G1 X0.00 Y333.09 ; Stitch point
G1 X0.00 Y330.54 ; Stitch point
G1 X0.00 Y333.09 ; Stitch point
G1 X0.00 Y333.09 ; Stitch point
G1 X0.00 Y333.09 ; Stitch point
G1 X0.00 Y333.09 ; Stitch point
G1 X0.00 Y333.09 ; Stitch point
G1 X0.00 Y333.09 ; Stitch point
G1 X0.00 Y333.10 ; Stitch point
G1 X0.00 Y331.81 ; Stitch point
G1 X0.00 Y334.37 ; Stitch point
G1 X0.00 Y334.37 ; Stitch point
G1 X0.00 Y334.37 ; Stitch point
G1 X0.00 Y334.37 ; Stitch point
G1 X0.00 Y334.37 ; Stitch point
G1 X0.00 Y334.37 ; Stitch point
G1 X0.00 Y331.82 ; Stitch point
G1 X0.00 Y334.37 ; Stitch point
G1 X0.00 Y334.37 ; Stitch point
G1 X0.00 Y334.37 ; Stitch point
G1 X0.00 Y334.37 ; Stitch point
G1 X0.00 Y334.37 ; Stitch point
G1 X0.00 Y334.37 ; Stitch point
G1 X0.00 Y334.37 ; Stitch point
G1 X0.00 Y331.82 ; Stitch point
G1 X0.00 Y334.37 ; Stitch point
G1 X0.00 Y334.37 ; Stitch point
G1 X0.00 Y334.37 ; Stitch point
G1 X0.00 Y334.37 ; Stitch point
G1 X0.00 Y334.37 ; Stitch point
G1 X0.00 Y334.37 ; Stitch point
G1 X0.00 Y334.38 ; Stitch point
G1 X0.00 Y330.53 ; Stitch point
G1 X0.00 Y333.09 ; Stitch point
G1 X0.00 Y333.09 ; Stitch point
G1 X0.00 Y333.09 ; Stitch point
G1 X0.00 Y333.09 ; Stitch point
G1 X0.00 Y333.09 ; Stitch point
G1 X0.00 Y333.09 ; Stitch point
G1 X0.00 Y330.54 ; Stitch point
G1 X0.00 Y333.09 ; Stitch point
G1 X0.00 Y333.09 ; Stitch point
G1 X0.00 Y333.09 ; Stitch point
G1 X0.00 Y333.09 ; Stitch point
G1 X0.00 Y333.09 ; Stitch point
G1 X0.00 Y333.09 ; Stitch point
G1 X0.00 Y333.09 ; Stitch point
G1 X0.00 Y330.54 ; Stitch point
G1 X0.00 Y333.09 ; Stitch point
G1 X0.00 Y333.09 ; Stitch point
G1 X0.00 Y333.09 ; Stitch point
G1 X0.00 Y333.09 ; Stitch point
G1 X0.00 Y333.09 ; Stitch point
G1 X0.00 Y333.09 ; Stitch point
G1 X0.00 Y333.10 ; Stitch point
G1 X0.00 Y331.81 ; Stitch point
G1 X0.00 Y334.37 ; Stitch point
G1 X0.00 Y334.37 ; Stitch point
G1 X0.00 Y334.37 ; Stitch point
G1 X0.00 Y334.37 ; Stitch point
G1 X0.00 Y334.37 ; Stitch point
G1 X0.00 Y334.37 ; Stitch point
G1 X0.00 Y331.82 ; Stitch point
G1 X0.00 Y334.37 ; Stitch point
G1 X0.00 Y334.37 ; Stitch point
G1 X0.00 Y334.37 ; Stitch point
G1 X0.00 Y334.37 ; Stitch point
G1 X0.00 Y334.37 ; Stitch point
G1 X0.00 Y334.37 ; Stitch point
G1 X0.00 Y334.37 ; Stitch point
G1 X0.00 Y331.82 ; Stitch point
G1 X0.00 Y334.37 ; Stitch point
G1 X0.00 Y334.37 ; Stitch point
G1 X0.00 Y334.37 ; Stitch point
G1 X0.00 Y334.37 ; Stitch point
G1 X0.00 Y334.37 ; Stitch point
G1 X0.00 Y334.37 ; Stitch point
G1 X0.00 Y334.38 ; Stitch point
G1 X0.00 Y0.29 ; Stitch point
G1 X0.00 Y0.29 ; Stitch point
G1 X0.00 Y0.29 ; Stitch point
G1 X0.00 Y0.29 ; Stitch point
G1 X0.00 Y0.29 ; Stitch point
G1 X0.00 Y0.29 ; Stitch point
G1 X0.00 Y0.29 ; Stitch point
G1 X0.00 Y0.30 ; Stitch point
G1 X0.00 Y0.29 ; Stitch point
G1 X0.00 Y0.29 ; Stitch point
G1 X0.00 Y0.29 ; Stitch point
G1 X0.00 Y0.29 ; Stitch point
G1 X0.00 Y0.29 ; Stitch point
G1 X0.00 Y0.29 ; Stitch point
G1 X0.00 Y0.29 ; Stitch point
G1 X0.00 Y0.30 ; Stitch point
G1 X0.00 Y0.29 ; Stitch point
G1 X0.00 Y0.29 ; Stitch point
G1 X0.00 Y0.29 ; Stitch point
G1 X0.00 Y0.29 ; Stitch point
G1 X0.00 Y0.29 ; Stitch point
G1 X0.00 Y0.29 ; Stitch point
G1 X0.00 Y0.30 ; Stitch point
G1 X0.00 Y1.58 ; Stitch point
G1 X0.00 Y1.58 ; Stitch point
G1 X0.00 Y1.58 ; Stitch point
F0 ; Speed change
G0 X399.36 Y7.74 ; Move to position
G0 X401.92 Y7.75 ; Move to position
G0 X401.92 Y7.75 ; Move to position
G0 X401.92 Y7.75 ; Move to position
G0 X401.92 Y79.43 ; Move to position

M30 ; End of program
